icons/blister_pills_oval_x14.svg

<svg width="48" height="48" viewBox="0 0 48 48" fill="none" xmlns="http://www.w3.org/2000/svg">
<path d="M25.2 40.418C25.2 40.0882 24.9314 39.8209 24.6 39.8209C24.2686 39.8209 24 40.0882 24 40.418C24 40.7477 24.2686 41.015 24.6 41.015C24.9314 41.015 25.2 40.7477 25.2 40.418Z" fill="black"/>
<path d="M24.6 36.8359C24.9314 36.8359 25.2 37.1032 25.2 37.4329C25.2 37.7626 24.9314 38.0299 24.6 38.0299C24.2686 38.0299 24 37.7626 24 37.4329C24 37.1032 24.2686 36.8359 24.6 36.8359Z" fill="black"/>
<path d="M25.2 34.4478C25.2 34.1181 24.9314 33.8508 24.6 33.8508C24.2686 33.8508 24 34.1181 24 34.4478C24 34.7775 24.2686 35.0448 24.6 35.0448C24.9314 35.0448 25.2 34.7775 25.2 34.4478Z" fill="black"/>
<path d="M24.6 30.8657C24.9314 30.8657 25.2 31.133 25.2 31.4627C25.2 31.7924 24.9314 32.0597 24.6 32.0597C24.2686 32.0597 24 31.7924 24 31.4627C24 31.133 24.2686 30.8657 24.6 30.8657Z" fill="black"/>
<path d="M25.2 28.4776C25.2 28.1479 24.9314 27.8806 24.6 27.8806C24.2686 27.8806 24 28.1479 24 28.4776C24 28.8074 24.2686 29.0747 24.6 29.0747C24.9314 29.0747 25.2 28.8074 25.2 28.4776Z" fill="black"/>
<path d="M24.6 24.8955C24.9314 24.8955 25.2 25.1628 25.2 25.4926C25.2 25.8223 24.9314 26.0896 24.6 26.0896C24.2686 26.0896 24 25.8223 24 25.4926C24 25.1628 24.2686 24.8955 24.6 24.8955Z" fill="black"/>
<path d="M25.2 22.5075C25.2 22.1778 24.9314 21.9105 24.6 21.9105C24.2686 21.9105 24 22.1778 24 22.5075C24 22.8372 24.2686 23.1045 24.6 23.1045C24.9314 23.1045 25.2 22.8372 25.2 22.5075Z" fill="black"/>
<path d="M24.6 18.9254C24.9314 18.9254 25.2 19.1927 25.2 19.5224C25.2 19.8521 24.9314 20.1194 24.6 20.1194C24.2686 20.1194 24 19.8521 24 19.5224C24 19.1927 24.2686 18.9254 24.6 18.9254Z" fill="black"/>
<path d="M25.2 16.5373C25.2 16.2076 24.9314 15.9403 24.6 15.9403C24.2686 15.9403 24 16.2076 24 16.5373C24 16.8671 24.2686 17.1343 24.6 17.1343C24.9314 17.1343 25.2 16.8671 25.2 16.5373Z" fill="black"/>
<path d="M24.6 12.9552C24.9314 12.9552 25.2 13.2225 25.2 13.5523C25.2 13.882 24.9314 14.1493 24.6 14.1493C24.2686 14.1493 24 13.882 24 13.5523C24 13.2225 24.2686 12.9552 24.6 12.9552Z" fill="black"/>
<path d="M25.2 10.5672C25.2 10.2374 24.9314 9.97016 24.6 9.97016C24.2686 9.97016 24 10.2374 24 10.5672C24 10.8969 24.2686 11.1642 24.6 11.1642C24.9314 11.1642 25.2 10.8969 25.2 10.5672Z" fill="black"/>
<path d="M24.6 6.98508C24.9314 6.98508 25.2 7.25237 25.2 7.58209C25.2 7.91182 24.9314 8.17911 24.6 8.17911C24.2686 8.17911 24 7.91182 24 7.58209C24 7.25237 24.2686 6.98508 24.6 6.98508Z" fill="black"/>
<path d="M18.8407 7.83578C19.3023 7.37419 20.0506 7.37419 20.5122 7.83578C20.9738 8.29738 20.9738 9.04576 20.5122 9.50735L18.8407 11.1789C18.3791 11.6405 17.6307 11.6405 17.1691 11.1789C16.7075 10.7173 16.7075 9.96895 17.1691 9.50735L18.8407 7.83578Z" fill="black"/>
<path d="M20.5122 12.6693C20.0506 12.2077 19.3023 12.2077 18.8407 12.6693L17.1691 14.3409C16.7075 14.8024 16.7075 15.5508 17.1691 16.0124C17.6307 16.474 18.3791 16.474 18.8407 16.0124L20.5122 14.3409C20.9738 13.8793 20.9738 13.1309 20.5122 12.6693Z" fill="black"/>
<path d="M18.8407 17.5028C19.3023 17.0412 20.0506 17.0412 20.5122 17.5028C20.9738 17.9644 20.9738 18.7128 20.5122 19.1743L18.8407 20.8459C18.3791 21.3075 17.6307 21.3075 17.1691 20.8459C16.7075 20.3843 16.7075 19.6359 17.1691 19.1743L18.8407 17.5028Z" fill="black"/>
<path d="M20.5122 22.3363C20.0506 21.8747 19.3023 21.8747 18.8407 22.3363L17.1691 24.0078C16.7075 24.4694 16.7075 25.2178 17.1691 25.6794C17.6307 26.141 18.3791 26.141 18.8407 25.6794L20.5122 24.0078C20.9738 23.5463 20.9738 22.7979 20.5122 22.3363Z" fill="black"/>
<path d="M18.8407 27.1698C19.3023 26.7082 20.0506 26.7082 20.5122 27.1698C20.9738 27.6314 20.9738 28.3797 20.5122 28.8413L18.8407 30.5129C18.3791 30.9745 17.6307 30.9745 17.1691 30.5129C16.7075 30.0513 16.7075 29.3029 17.1691 28.8413L18.8407 27.1698Z" fill="black"/>
<path d="M20.5122 32.0033C20.0506 31.5417 19.3023 31.5417 18.8407 32.0033L17.1691 33.6748C16.7075 34.1364 16.7075 34.8848 17.1691 35.3464C17.6307 35.808 18.3791 35.808 18.8407 35.3464L20.5122 33.6748C20.9738 33.2132 20.9738 32.4649 20.5122 32.0033Z" fill="black"/>
<path d="M18.8407 36.8368C19.3023 36.3752 20.0506 36.3752 20.5122 36.8368C20.9738 37.2984 20.9738 38.0467 20.5122 38.5083L18.8407 40.1799C18.3791 40.6415 17.6307 40.6415 17.1691 40.1799C16.7075 39.7183 16.7075 38.9699 17.1691 38.5083L18.8407 36.8368Z" fill="black"/>
<path d="M31.5122 7.83578C31.0506 7.37419 30.3023 7.37419 29.8407 7.83578L28.1691 9.50735C27.7075 9.96895 27.7075 10.7173 28.1691 11.1789C28.6307 11.6405 29.3791 11.6405 29.8407 11.1789L31.5122 9.50735C31.9738 9.04576 31.9738 8.29738 31.5122 7.83578Z" fill="black"/>
<path d="M29.8407 12.6693C30.3023 12.2077 31.0506 12.2077 31.5122 12.6693C31.9738 13.1309 31.9738 13.8793 31.5122 14.3409L29.8407 16.0124C29.3791 16.474 28.6307 16.474 28.1691 16.0124C27.7075 15.5508 27.7075 14.8024 28.1691 14.3409L29.8407 12.6693Z" fill="black"/>
<path d="M31.5122 17.5028C31.0506 17.0412 30.3023 17.0412 29.8407 17.5028L28.1691 19.1743C27.7075 19.6359 27.7075 20.3843 28.1691 20.8459C28.6307 21.3075 29.3791 21.3075 29.8407 20.8459L31.5122 19.1743C31.9738 18.7128 31.9738 17.9644 31.5122 17.5028Z" fill="black"/>
<path d="M29.8407 22.3363C30.3023 21.8747 31.0506 21.8747 31.5122 22.3363C31.9738 22.7979 31.9738 23.5463 31.5122 24.0078L29.8407 25.6794C29.3791 26.141 28.6307 26.141 28.1691 25.6794C27.7075 25.2178 27.7075 24.4694 28.1691 24.0078L29.8407 22.3363Z" fill="black"/>
<path d="M31.5122 27.1698C31.0506 26.7082 30.3023 26.7082 29.8407 27.1698L28.1691 28.8413C27.7075 29.3029 27.7075 30.0513 28.1691 30.5129C28.6307 30.9745 29.3791 30.9745 29.8407 30.5129L31.5122 28.8413C31.9738 28.3797 31.9738 27.6314 31.5122 27.1698Z" fill="black"/>
<path d="M29.8407 32.0033C30.3023 31.5417 31.0506 31.5417 31.5122 32.0033C31.9738 32.4649 31.9738 33.2132 31.5122 33.6748L29.8407 35.3464C29.3791 35.808 28.6307 35.808 28.1691 35.3464C27.7075 34.8848 27.7075 34.1364 28.1691 33.6748L29.8407 32.0033Z" fill="black"/>
<path d="M31.5122 36.8368C31.0506 36.3752 30.3023 36.3752 29.8407 36.8368L28.1691 38.5083C27.7075 38.9699 27.7075 39.7183 28.1691 40.1799C28.6307 40.6415 29.3791 40.6415 29.8407 40.1799L31.5122 38.5083C31.9738 38.0467 31.9738 37.2984 31.5122 36.8368Z" fill="black"/>
<path fill-rule="evenodd" clip-rule="evenodd" d="M16 4C13.7909 4 12 5.79086 12 8V40C12 42.2091 13.7909 44 16 44H24.5922L24.6 44L24.6078 44H32C34.2091 44 36 42.2091 36 40V8C36 5.79086 34.2091 4 32 4H16ZM34 8C34 6.89543 33.1046 6 32 6H16C14.8954 6 14 6.89543 14 8V40C14 41.1046 14.8954 42 16 42H32C33.1046 42 34 41.1046 34 40V8Z" fill="black"/>
</svg>

<svg
  xmlns="http://www.w3.org/2000/svg"
  width="24"
  height="24"
  viewBox="0 0 24 24"
  fill="none"
  stroke="currentColor"
  stroke-width="2"
  stroke-linecap="round"
  stroke-linejoin="round"
>
  <path d="M25.2 40.418a.6.6 0 0 0-.6-.597c-.331 0-.6.267-.6.597s.269.597.6.597.6-.267.6-.597" />
  <path d="M24.6 36.836c.331 0 .6.267.6.597s-.269.597-.6.597a.6.6 0 0 1-.6-.597c0-.33.269-.597.6-.597" />
  <path d="M25.2 34.448a.6.6 0 0 0-.6-.597c-.331 0-.6.267-.6.597s.269.597.6.597.6-.267.6-.597" />
  <path d="M24.6 30.866c.331 0 .6.267.6.597s-.269.597-.6.597a.6.6 0 0 1-.6-.597c0-.33.269-.597.6-.597" />
  <path d="M25.2 28.478a.6.6 0 0 0-.6-.597c-.331 0-.6.267-.6.597s.269.597.6.597.6-.268.6-.597" />
  <path d="M24.6 24.896c.331 0 .6.267.6.597s-.269.597-.6.597a.6.6 0 0 1-.6-.597c0-.33.269-.598.6-.598" />
  <path d="M25.2 22.508a.6.6 0 0 0-.6-.598.598.598 0 1 0 0 1.194c.331 0 .6-.267.6-.596" />
  <path d="M24.6 18.925c.331 0 .6.268.6.597 0 .33-.269.597-.6.597a.6.6 0 0 1-.6-.597c0-.33.269-.597.6-.597" />
  <path d="M25.2 16.537a.6.6 0 0 0-.6-.597c-.331 0-.6.268-.6.597 0 .33.269.597.6.597s.6-.267.6-.597" />
  <path d="M24.6 12.955c.331 0 .6.268.6.597 0 .33-.269.597-.6.597a.6.6 0 0 1-.6-.597c0-.33.269-.597.6-.597" />
  <path d="M25.2 10.567a.6.6 0 0 0-.6-.597c-.331 0-.6.267-.6.597s.269.597.6.597.6-.267.6-.597" />
  <path d="M24.6 6.985c.331 0 .6.267.6.597s-.269.597-.6.597a.6.6 0 0 1-.6-.597c0-.33.269-.597.6-.597" />
  <path d="M18.84 7.836a1.182 1.182 0 1 1 1.672 1.671l-1.671 1.672a1.182 1.182 0 0 1-1.672-1.672z" />
  <path d="M20.512 12.67a1.18 1.18 0 0 0-1.671 0l-1.672 1.67a1.182 1.182 0 1 0 1.672 1.672l1.671-1.671a1.18 1.18 0 0 0 0-1.672" />
  <path d="M18.84 17.503a1.182 1.182 0 1 1 1.672 1.671l-1.671 1.672a1.182 1.182 0 1 1-1.672-1.672z" />
  <path d="M20.512 22.336a1.18 1.18 0 0 0-1.671 0l-1.672 1.672a1.182 1.182 0 1 0 1.672 1.671l1.671-1.671a1.18 1.18 0 0 0 0-1.672" />
  <path d="M18.84 27.17a1.182 1.182 0 1 1 1.672 1.671l-1.671 1.672a1.182 1.182 0 1 1-1.672-1.672z" />
  <path d="M20.512 32.003a1.18 1.18 0 0 0-1.671 0l-1.672 1.672a1.182 1.182 0 1 0 1.672 1.671l1.671-1.671a1.18 1.18 0 0 0 0-1.672" />
  <path d="M18.84 36.837a1.182 1.182 0 1 1 1.672 1.671l-1.671 1.672a1.182 1.182 0 1 1-1.672-1.672z" />
  <path d="M31.512 7.836a1.18 1.18 0 0 0-1.671 0l-1.672 1.671a1.182 1.182 0 1 0 1.672 1.672l1.671-1.672a1.18 1.18 0 0 0 0-1.671" />
  <path d="M29.84 12.67a1.182 1.182 0 1 1 1.672 1.67l-1.671 1.672a1.182 1.182 0 0 1-1.672-1.671z" />
  <path d="M31.512 17.503a1.18 1.18 0 0 0-1.671 0l-1.672 1.671a1.182 1.182 0 1 0 1.672 1.672l1.671-1.672a1.18 1.18 0 0 0 0-1.671" />
  <path d="M29.84 22.336a1.182 1.182 0 1 1 1.672 1.672l-1.671 1.671a1.182 1.182 0 1 1-1.672-1.671z" />
  <path d="M31.512 27.17a1.18 1.18 0 0 0-1.671 0l-1.672 1.671a1.182 1.182 0 1 0 1.672 1.672l1.671-1.672a1.18 1.18 0 0 0 0-1.671" />
  <path d="M29.84 32.003a1.182 1.182 0 1 1 1.672 1.672l-1.671 1.671a1.182 1.182 0 1 1-1.672-1.671z" />
  <path d="M31.512 36.837a1.18 1.18 0 0 0-1.671 0l-1.672 1.671a1.182 1.182 0 1 0 1.672 1.672l1.671-1.672a1.18 1.18 0 0 0 0-1.671" />
  <path
    fill-rule="evenodd"
    d="M16 4a4 4 0 0 0-4 4v32a4 4 0 0 0 4 4h16a4 4 0 0 0 4-4V8a4 4 0 0 0-4-4zm18 4a2 2 0 0 0-2-2H16a2 2 0 0 0-2 2v32a2 2 0 0 0 2 2h16a2 2 0 0 0 2-2z"
    clip-rule="evenodd"
  />
</svg>
